X: 28967
T: Nancy's Party
R: jig
M: 6/8
K: Gmajor
D3 DEG|~B3 BAG|B~B2 BAG|A/A/BA AGE|
DED D/D/EG|B~B2 BAG|ded dcB|1 AGF G2E:|2 AGF GBd||
|:~g3 ~B3|ded def|g2(g {a}g)ed|eaa aba|
~g3 ~B3|ded def|1 g/g/fe dcB|cBA GBd:|2 gfe dzB|cBA GFE||
"End" gag d2B|cBA [G3G,3]||

